src/standard/cross.svg

<svg xmlns="http://www.w3.org/2000/svg" viewBox="0 0 36 36">
  <path d="M22 31.62h-8a.62.62 0 0 1-.62-.62v-8.38H5a.62.62 0 0 1-.62-.62v-8a.62.62 0 0 1 .62-.62h8.38V5a.62.62 0 0 1 .62-.62h8a.62.62 0 0 1 .62.62v8.38H31a.62.62 0 0 1 .62.62v8a.62.62 0 0 1-.62.62h-8.38V31a.62.62 0 0 1-.62.62Zm-7.38-1.24h6.76V22a.62.62 0 0 1 .62-.62h8.38v-6.76H22a.62.62 0 0 1-.62-.62V5.62h-6.76V14a.62.62 0 0 1-.62.62H5.62v6.76H14a.62.62 0 0 1 .62.62Z"/>
</svg>

<svg id="a3e3512e-6701-4cba-90fd-a40f2dd0f017" data-name="Icon" xmlns="http://www.w3.org/2000/svg" viewBox="0 0 36 36">
  <title>Cross icon - Black</title>
<desc>plus, health, healthcare, medical, x, shapes and signage</desc>
<metadata><?xpacket begin="﻿" id="W5M0MpCehiHzreSzNTczkc9d"?>
<x:xmpmeta xmlns:x="adobe:ns:meta/" x:xmptk="Adobe XMP Core 8.0-c001 1.000000, 0000/00/00-00:00:00        ">
   <rdf:RDF xmlns:rdf="http://www.w3.org/1999/02/22-rdf-syntax-ns#">
      <rdf:Description rdf:about=""
            xmlns:xmp="http://ns.adobe.com/xap/1.0/"
            xmlns:dc="http://purl.org/dc/elements/1.1/"
            xmlns:cq="http://www.day.com/jcr/cq/1.0"
            xmlns:tiff="http://ns.adobe.com/tiff/1.0/">
         <xmp:rhcc-effective-on>2023-12-08T17:37:51.915Z</xmp:rhcc-effective-on>
         <xmp:rhcc-metadata-complete-moderator>pending</xmp:rhcc-metadata-complete-moderator>
         <xmp:rhcc-translation-id>TRAf855e482-bb56-4681-8f28-bd8ffa09b10e</xmp:rhcc-translation-id>
         <xmp:brand-content-type>Icon</xmp:brand-content-type>
         <xmp:CreateDate>2023-12-08T17:37:51.915Z</xmp:CreateDate>
         <xmp:rhcc-effective-on-set-on-upload>true</xmp:rhcc-effective-on-set-on-upload>
         <xmp:rhcc-metadata-complete-uploader>pending</xmp:rhcc-metadata-complete-uploader>
         <xmp:rhcc-file-last-modified>2023-12-08T17:40:50.299Z</xmp:rhcc-file-last-modified>
         <xmp:rhcc-audience>rhcc-audience:internal</xmp:rhcc-audience>
         <xmp:rhcc-rights-restricted>no</xmp:rhcc-rights-restricted>
         <xmp:brand-content-subtype>Icon</xmp:brand-content-subtype>
         <xmp:rhcc-derivative-id>DERf855e482-bb56-4681-8f28-bd8ffa09b10e</xmp:rhcc-derivative-id>
         <xmp:brand-logo-color>Black</xmp:brand-logo-color>
         <xmp:rhcc-notify-portal-subscribers-on-change>yes</xmp:rhcc-notify-portal-subscribers-on-change>
         <dc:format>image/svg+xml</dc:format>
         <dc:modified>2024-02-09T20:27:45.156Z</dc:modified>
         <dc:title>
            <rdf:Alt>
               <rdf:li xml:lang="x-default">Cross icon - Black</rdf:li>
            </rdf:Alt>
         </dc:title>
         <dc:description>
            <rdf:Alt>
               <rdf:li xml:lang="x-default">plus, health, healthcare, medical, x, shapes and signage</rdf:li>
            </rdf:Alt>
         </dc:description>
         <cq:lastReplicationAction_scene7>Activate</cq:lastReplicationAction_scene7>
         <cq:lastReplicationAction_publish>Activate</cq:lastReplicationAction_publish>
         <cq:lastReplicated_publish>2024-02-09T22:14:32.388Z</cq:lastReplicated_publish>
         <cq:lastReplicatedBy>workflow-process-service</cq:lastReplicatedBy>
         <cq:lastReplicationAction>Activate</cq:lastReplicationAction>
         <cq:lastReplicatedBy_publish>workflow-process-service</cq:lastReplicatedBy_publish>
         <cq:isDelivered>true</cq:isDelivered>
         <cq:lastReplicated>2024-02-09T22:14:32.388Z</cq:lastReplicated>
         <cq:lastReplicatedBy_scene7>workflow-process-service</cq:lastReplicatedBy_scene7>
         <cq:lastReplicated_scene7>2024-02-09T22:14:32.388Z</cq:lastReplicated_scene7>
         <tiff:ImageLength>36</tiff:ImageLength>
         <tiff:ImageWidth>36</tiff:ImageWidth>
      </rdf:Description>
   </rdf:RDF>
</x:xmpmeta>
                                                                                                    
                                                                                                    
                                                                                                    
                                                                                                    
                                                                                                    
                                                                                                    
                                                                                                    
                                                                                                    
                                                                                                    
                                                                                                    
                                 
<?xpacket end="w"?></metadata>
<path d="M22,31.62H14a.62.62,0,0,1-.62-.62V22.62H5A.62.62,0,0,1,4.38,22V14A.62.62,0,0,1,5,13.38h8.38V5A.62.62,0,0,1,14,4.38h8a.62.62,0,0,1,.62.62v8.38H31a.62.62,0,0,1,.62.62v8a.62.62,0,0,1-.62.62H22.62V31A.62.62,0,0,1,22,31.62Zm-7.38-1.24h6.76V22a.62.62,0,0,1,.62-.62h8.38V14.62H22a.62.62,0,0,1-.62-.62V5.62H14.62V14a.62.62,0,0,1-.62.62H5.62v6.76H14a.62.62,0,0,1,.62.62Z"/>
</svg>
